logo/windi-css.svg

<?xml version="1.0" encoding="UTF-8"?>
<svg width="256px" height="279px" viewBox="0 0 256 279" version="1.1" xmlns="http://www.w3.org/2000/svg" preserveAspectRatio="xMidYMid">
    <title>Windi CSS</title>
    <defs>
        <linearGradient x1="16.6393504%" y1="36.1860418%" x2="137.274641%" y2="175.371416%" id="windiLinearGradient-1">
            <stop stop-color="#54C8F1" offset="7.8225%"></stop>
            <stop stop-color="#41A2EF" offset="57.2917%"></stop>
            <stop stop-color="#3386EE" offset="100%"></stop>
        </linearGradient>
        <linearGradient x1="-22.0989921%" y1="-49.6214796%" x2="91.4510521%" y2="73.6945313%" id="windiLinearGradient-2">
            <stop stop-color="#54C8F1" offset="7.8225%"></stop>
            <stop stop-color="#41A2EF" offset="57.2917%"></stop>
            <stop stop-color="#3386EE" offset="100%"></stop>
        </linearGradient>
        <linearGradient x1="8.69565217%" y1="37.4606971%" x2="71.7391304%" y2="80.2713244%" id="windiLinearGradient-3">
            <stop stop-color="#54C8F1" offset="7.8225%"></stop>
            <stop stop-color="#41A2EF" offset="57.2917%"></stop>
            <stop stop-color="#3386EE" offset="100%"></stop>
        </linearGradient>
        <linearGradient x1="60.7436542%" y1="-308.636493%" x2="501.135147%" y2="225.788414%" id="windiLinearGradient-4">
            <stop stop-color="#54C8F1" offset="7.8225%"></stop>
            <stop stop-color="#41A2EF" offset="57.2917%"></stop>
            <stop stop-color="#3386EE" offset="100%"></stop>
        </linearGradient>
    </defs>
    <g>
        <path d="M133.784487,48.9218783 C133.784487,21.9447652 111.839443,0 84.8626087,0 C56.4321391,0 39.4354087,21.3158957 39.4354087,41.9328 L67.3906087,41.9328 C67.3906087,36.1321739 72.813913,27.9552 84.8626087,27.9552 C96.4221217,27.9552 105.829009,37.3623652 105.829009,48.9218783 C105.829009,60.4813913 97.3913043,69.8882783 76.1135304,69.8882783 L0,69.8882783 L0,97.8434783 L76.1135304,97.8434783 C112.025043,97.8434783 133.784487,75.898713 133.784487,48.9218783 Z M133.784487,48.9218783 C133.784487,21.9447652 111.839443,0 84.8626087,0 C56.4321391,0 39.4354087,21.3158957 39.4354087,41.9328 L67.3906087,41.9328 C67.3906087,36.1321739 72.813913,27.9552 84.8626087,27.9552 C96.4221217,27.9552 105.829009,37.3623652 105.829009,48.9218783 C105.829009,60.4813913 97.3913043,69.8882783 76.1135304,69.8882783 L0,69.8882783 L0,97.8434783 L76.1135304,97.8434783 C112.025043,97.8434783 133.784487,75.898713 133.784487,48.9218783 Z" fill="url(#windiLinearGradient-1)"></path>
        <path d="M195.802991,229.338991 C195.802991,256.317217 173.857948,278.26087 146.881113,278.26087 C118.450643,278.26087 101.453635,256.946087 101.453635,236.32807 L129.409113,236.32807 C129.409113,242.128696 134.832417,250.306783 146.881113,250.306783 C158.440626,250.306783 167.847513,240.898783 167.847513,229.338991 C167.847513,217.779478 157.217391,208.372591 138.132035,208.372591 L53.6706783,208.372591 L53.6706783,180.417391 L138.132035,180.417391 C174.043548,180.417391 195.802991,202.362157 195.802991,229.338991 Z M195.802991,229.338991 C195.802991,256.317217 173.857948,278.26087 146.881113,278.26087 C118.450643,278.26087 101.453635,256.946087 101.453635,236.32807 L129.409113,236.32807 C129.409113,242.128696 134.832417,250.306783 146.881113,250.306783 C158.440626,250.306783 167.847513,240.898783 167.847513,229.338991 C167.847513,217.779478 157.217391,208.372591 138.132035,208.372591 L53.6706783,208.372591 L53.6706783,180.417391 L138.132035,180.417391 C174.043548,180.417391 195.802991,202.362157 195.802991,229.338991 Z" fill="url(#windiLinearGradient-2)"></path>
        <path d="M203.130435,43.1304348 C172.295791,43.1304348 150.544696,66.5792 150.544696,97.4138435 L175.304348,97.4138435 C175.304348,82.0869565 186.434783,70.9565217 203.130435,70.9565217 C219.826087,70.9565217 228.173913,82.0869565 228.173913,97.4138435 C228.173913,112.74073 217.331757,125.369043 187.826087,125.369043 L0,125.369043 L0,153.324522 L192,153.324522 C235.695304,153.324522 256,125.23993 256,97.4138435 C256,66.5792 235.130435,43.1304348 203.130435,43.1304348 Z" fill="url(#windiLinearGradient-3)"></path>
        <polygon fill="url(#windiLinearGradient-4)" points="36.6472348 180.417391 0 180.417391 0 208.607443 36.6472348 208.607443"></polygon>
    </g>
</svg>

<svg viewBox="0 0 256 279" xmlns="http://www.w3.org/2000/svg" xmlns:xlink="http://www.w3.org/1999/xlink"><defs><linearGradient id="a" x1="16.639%" x2="137.274%" y1="36.186%" y2="175.371%"><stop offset="7.8225%" stop-color="#54C8F1"/><stop offset="57.2917%" stop-color="#41A2EF"/><stop offset="100%" stop-color="#3386EE"/></linearGradient><linearGradient id="b" x1="-22.099%" x2="91.451%" y1="-49.622%" y2="73.694%" xlink:href="#a"/><linearGradient id="c" x1="8.695%" x2="71.739%" y1="37.46%" y2="80.271%" xlink:href="#a"/><linearGradient id="d" x1="60.743%" x2="501.135%" y1="-308.637%" y2="225.788%" xlink:href="#a"/></defs><path fill="url(#a)" d="M133.78 48.92c0-26.98-21.95-48.93-48.93-48.93 -28.44 0-45.43 21.31-45.43 41.93h27.95c0-5.81 5.42-13.98 17.47-13.98 11.55 0 20.96 9.4 20.96 20.96 0 11.55-8.44 20.96-29.72 20.96H-.04v27.95h76.11c35.91 0 57.67-21.95 57.67-48.93Zm0 0c0-26.98-21.95-48.93-48.93-48.93 -28.44 0-45.43 21.31-45.43 41.93h27.95c0-5.81 5.42-13.98 17.47-13.98 11.55 0 20.96 9.4 20.96 20.96 0 11.55-8.44 20.96-29.72 20.96H-.04v27.95h76.11c35.91 0 57.67-21.95 57.67-48.93Z"/><path fill="url(#b)" d="M195.8 229.33c0 26.97-21.95 48.92-48.93 48.92 -28.44 0-45.43-21.32-45.43-41.94h27.95c0 5.8 5.42 13.97 17.47 13.97 11.55 0 20.96-9.41 20.96-20.97 0-11.56-10.64-20.97-29.72-20.97H53.63v-27.96h84.46c35.91 0 57.67 21.94 57.67 48.92Zm0 0c0 26.97-21.95 48.92-48.93 48.92 -28.44 0-45.43-21.32-45.43-41.94h27.95c0 5.8 5.42 13.97 17.47 13.97 11.55 0 20.96-9.41 20.96-20.97 0-11.56-10.64-20.97-29.72-20.97H53.63v-27.96h84.46c35.91 0 57.67 21.94 57.67 48.92Z"/><path fill="url(#c)" d="M203.13 43.13c-30.84 0-52.59 23.44-52.59 54.28h24.75c0-15.33 11.13-26.46 27.82-26.46 16.69 0 25.04 11.13 25.04 26.45 0 15.32-10.85 27.95-40.35 27.95H-.03v27.95h192c43.69 0 64-28.09 64-55.92 0-30.84-20.87-54.29-52.87-54.29Z"/><path fill="url(#d)" d="M36.64 180.41l-36.65 0 0 28.19 36.64 0Z"/></svg>
